src/icons/svg/login-show.svg

<?xml version="1.0" standalone="no"?><!DOCTYPE svg PUBLIC "-//W3C//DTD SVG 1.1//EN" "http://www.w3.org/Graphics/SVG/1.1/DTD/svg11.dtd"><svg t="1548756015518" class="icon" style="" viewBox="0 0 1024 1024" version="1.1" xmlns="http://www.w3.org/2000/svg" p-id="2449" xmlns:xlink="http://www.w3.org/1999/xlink" width="200" height="200"><defs><style type="text/css"></style></defs><path d="M512 220.72888889c-191.14666667 0-375.01155555 121.05955555-436.90666667 291.27111111 61.89511111 170.21155555 245.76 291.27111111 436.90666667 291.27111111 190.23644445 0 375.92177778-121.05955555 437.81688889-291.27111111C887.01155555 341.78844445 702.23644445 220.72888889 512 220.72888889z m0 473.31555556c-100.12444445 0-182.04444445-81.92-182.04444445-182.04444445s81.92-182.04444445 182.04444445-182.04444445 182.04444445 81.92 182.04444445 182.04444445-81.92 182.04444445-182.04444445 182.04444445z m109.22666667-182.04444445c0 60.07466667-49.152 109.22666667-109.22666667 109.22666667s-109.22666667-49.152-109.22666667-109.22666667 49.152-109.22666667 109.22666667-109.22666667 109.22666667 49.152 109.22666667 109.22666667z" p-id="2450"></path></svg>

<svg class="icon" viewBox="0 0 1024 1024" xmlns="http://www.w3.org/2000/svg" width="200" height="200"><defs><style/></defs><path d="M512 220.729c-191.147 0-375.012 121.06-436.907 291.271C136.988 682.212 320.853 803.271 512 803.271c190.236 0 375.922-121.06 437.817-291.271C887.012 341.788 702.237 220.729 512 220.729zm0 473.315c-100.124 0-182.044-81.92-182.044-182.044S411.876 329.956 512 329.956 694.044 411.876 694.044 512 612.124 694.044 512 694.044zM621.227 512c0 60.075-49.152 109.227-109.227 109.227S402.773 572.075 402.773 512 451.925 402.773 512 402.773 621.227 451.925 621.227 512z"/></svg>
